static/assets/images/exchanges/gammaswap.svg

<svg width="348" height="256" viewBox="0 0 348 256" fill="none" xmlns="http://www.w3.org/2000/svg">
<path fill-rule="evenodd" clip-rule="evenodd" d="M339.313 0C344.293 0 348.123 4.07963 347.994 8.92418C346.336 65.4032 329.23 118.564 299.229 159.235C266.297 204.111 221.744 228.714 174.001 228.714C138.768 228.714 105.322 215.329 76.9824 190.342C74.4292 187.921 73.408 184.222 74.5552 180.908C77.7483 171.728 81.452 163.059 85.7889 154.771C86.3986 153.568 87.2855 152.526 88.3766 151.732C89.4677 150.938 90.7319 150.414 92.0653 150.202C93.3987 149.991 94.7634 150.099 96.0471 150.516C97.3308 150.934 98.497 151.65 99.4498 152.605C120.641 173.388 146.298 185.623 174.001 185.623C211.276 185.623 244.977 163.44 268.851 127.998C244.977 92.5599 211.276 70.3736 174.001 70.3736C103.661 70.3736 46.0897 149.165 43.0259 247.712C42.9519 249.93 42.0195 252.033 40.4247 253.579C38.8299 255.124 36.6971 255.992 34.4747 256H8.68487C7.52228 256.002 6.37108 255.771 5.29982 255.32C4.22855 254.869 3.2591 254.207 2.44918 253.374C1.63926 252.541 1.00543 251.554 0.5854 250.471C0.165375 249.389 -0.0322528 248.233 0.00428049 247.072C1.28084 204.11 11.4933 163.059 29.4944 128.002C11.4933 92.9373 1.28084 52.0186 0.00428049 8.92078C-0.121673 4.07963 3.83395 0 8.68487 0H34.4713C36.6943 0.00669108 38.828 0.874235 40.4235 2.4201C42.019 3.96596 42.9519 6.06961 43.0259 8.28844C43.9178 36.0809 49.1534 62.2177 57.7081 85.5464C89.622 47.9356 130.472 27.4117 174.001 27.4117C217.533 27.4117 258.383 47.939 290.297 85.5464C298.977 62.2143 304.084 36.0809 304.975 8.28844C305.049 6.06961 305.982 3.96596 307.578 2.4201C309.173 0.874235 311.307 0.00669108 313.53 0H339.313ZM319.273 164.589C323.358 158.599 332.294 160 334.462 166.884C342.636 192.001 347.231 219.154 347.997 247.076C348.123 251.92 344.167 256 339.317 256H313.53C311.307 255.993 309.173 255.126 307.578 253.58C305.982 252.034 305.049 249.93 304.975 247.712C304.466 230.443 302.199 213.272 298.211 196.461C297.899 195.076 297.922 193.637 298.277 192.263C298.632 190.888 299.31 189.618 300.254 188.557C305.446 182.859 310.345 176.902 314.933 170.709C316.464 168.669 317.867 166.629 319.273 164.589Z" fill="url(#paint0_linear_10243_974)"/>
<defs>
<linearGradient id="paint0_linear_10243_974" x1="174.001" y1="0" x2="174.001" y2="256" gradientUnits="userSpaceOnUse">
<stop stop-color="#55C1F8"/>
<stop offset="0.505" stop-color="#0085FF"/>
<stop offset="1" stop-color="#4A4CFF"/>
</linearGradient>
</defs>
</svg>

<svg xmlns="http://www.w3.org/2000/svg" fill="none" viewBox="0 0 348 256"><path fill="url(#paint0_linear_10243_974)" fill-rule="evenodd" d="M339.313 0c4.98 0 8.81 4.08 8.681 8.924-1.658 56.48-18.764 109.64-48.765 150.311-32.932 44.876-77.485 69.479-125.228 69.479-35.233 0-68.679-13.385-97.019-38.372-2.553-2.421-3.574-6.12-2.427-9.434 3.193-9.18 6.897-17.849 11.234-26.137a8.53 8.53 0 0 1 6.276-4.569 8.54 8.54 0 0 1 7.385 2.403c21.191 20.783 46.848 33.018 74.551 33.018 37.275 0 70.976-22.183 94.85-57.625-23.874-35.438-57.575-57.624-94.85-57.624-70.34 0-127.911 78.791-130.975 177.338a8.57 8.57 0 0 1-2.601 5.867 8.6 8.6 0 0 1-5.95 2.421H8.685a8.7 8.7 0 0 1-6.236-2.626 8.65 8.65 0 0 1-2.445-6.302c1.277-42.962 11.49-84.013 29.49-119.07C11.494 92.937 1.281 52.019.004 8.921-.122 4.08 3.834 0 8.684 0h25.787a8.6 8.6 0 0 1 5.953 2.42 8.57 8.57 0 0 1 2.602 5.868c.892 27.793 6.127 53.93 14.682 77.258 31.914-37.61 72.764-58.134 116.293-58.134 43.532 0 84.382 20.527 116.296 58.134 8.68-23.332 13.787-49.465 14.678-77.258a8.57 8.57 0 0 1 2.603-5.868A8.6 8.6 0 0 1 313.53 0zm-20.04 164.589c4.085-5.99 13.021-4.589 15.189 2.295 8.174 25.117 12.769 52.27 13.535 80.192.126 4.844-3.83 8.924-8.68 8.924H313.53a8.6 8.6 0 0 1-5.952-2.42 8.57 8.57 0 0 1-2.603-5.868 254.5 254.5 0 0 0-6.764-51.251 8.93 8.93 0 0 1 2.043-7.904 228 228 0 0 0 14.679-17.848c1.531-2.04 2.934-4.08 4.34-6.12" clip-rule="evenodd"/><defs><linearGradient id="paint0_linear_10243_974" x1="174.001" x2="174.001" y1="0" y2="256" gradientUnits="userSpaceOnUse"><stop stop-color="#55C1F8"/><stop offset=".505" stop-color="#0085FF"/><stop offset="1" stop-color="#4A4CFF"/></linearGradient></defs></svg>
